svgs/sharp-regular/file-binary.svg

<svg xmlns="http://www.w3.org/2000/svg" viewBox="0 0 384 512"><!--! Font Awesome Pro 6.6.0 by @fontawesome - https://fontawesome.com License - https://fontawesome.com/license (Commercial License) Copyright 2024 Fonticons, Inc. --><path d="M48 464L48 48l176 0 0 112 112 0 0 304L48 464zM256 0L48 0 0 0 0 48 0 464l0 48 48 0 288 0 48 0 0-48 0-336L256 0zM96 240l-24 0 0 24 0 128 0 24 24 0 80 0 24 0 0-24 0-128 0-24-24 0-80 0zm24 128l0-80 32 0 0 80-32 0zM240 240l-24 0 0 48 24 0 0 80-24 0 0 48 24 0 24 0 24 0 24 0 0-48-24 0 0-104 0-24-24 0-24 0z"/></svg>

<svg xmlns="http://www.w3.org/2000/svg" viewBox="0 0 384 512"><!--! Font Awesome Pro 6.4.0 by @fontawesome - https://fontawesome.com License - https://fontawesome.com/license (Commercial License) Copyright 2023 Fonticons, Inc. --><path d="M48 464V48H224V160H336V464H48zM256 0H48 0V48 464v48H48 336h48V464 128L256 0zM96 240H72v24V392v24H96h80 24V392 264 240H176 96zm24 128V288h32v80H120zM240 240H216v48h24v80H216v48h24 24 24 24V368H288V264 240H264 240z"/></svg>
